X: 1
T: Three Thin Dimes - A
R: reel
M: C|
L: 1/8
K: A
|: a2g2f2e2| a2g2f2e2|dcBA GABc|dcde fefg| a2g2f2e2| a2g2f2e2|dcBA GABc|defg a4:|

